dist/icons/activities/2.svg

<svg width="40" height="40" viewBox="0 0 40 40" fill="none" xmlns="http://www.w3.org/2000/svg">
<path d="M35.3333 27.3793V19.3333H20.6667V12.6207C23.2933 12.2907 25.3333 10.048 25.3333 7.33333C25.3333 4.39267 22.9407 2 20 2C17.0593 2 14.6667 4.39267 14.6667 7.33333C14.6667 10.048 16.7067 12.2907 19.3333 12.6207V19.3333H4.66667V27.3793C2.04 27.7093 0 29.952 0 32.6667C0 35.6073 2.39267 38 5.33333 38C8.274 38 10.6667 35.6073 10.6667 32.6667C10.6667 29.952 8.62667 27.7093 6 27.3793V20.6667H19.3333V27.3793C16.7067 27.7093 14.6667 29.952 14.6667 32.6667C14.6667 35.6073 17.0593 38 20 38C22.9407 38 25.3333 35.6073 25.3333 32.6667C25.3333 29.952 23.2933 27.7093 20.6667 27.3793V20.6667H34V27.3793C31.3733 27.7093 29.3333 29.952 29.3333 32.6667C29.3333 35.6073 31.726 38 34.6667 38C37.6073 38 40 35.6073 40 32.6667C40 29.952 37.96 27.7093 35.3333 27.3793ZM16 7.33333C16 5.12733 17.794 3.33333 20 3.33333C22.206 3.33333 24 5.12733 24 7.33333C24 9.53933 22.206 11.3333 20 11.3333C17.794 11.3333 16 9.53933 16 7.33333ZM9.33333 32.6667C9.33333 34.8727 7.53933 36.6667 5.33333 36.6667C3.12733 36.6667 1.33333 34.8727 1.33333 32.6667C1.33333 30.4607 3.12733 28.6667 5.33333 28.6667C7.53933 28.6667 9.33333 30.4607 9.33333 32.6667ZM24 32.6667C24 34.8727 22.206 36.6667 20 36.6667C17.794 36.6667 16 34.8727 16 32.6667C16 30.4607 17.794 28.6667 20 28.6667C22.206 28.6667 24 30.4607 24 32.6667ZM34.6667 36.6667C32.4607 36.6667 30.6667 34.8727 30.6667 32.6667C30.6667 30.4607 32.4607 28.6667 34.6667 28.6667C36.8727 28.6667 38.6667 30.4607 38.6667 32.6667C38.6667 34.8727 36.8727 36.6667 34.6667 36.6667Z" fill="#DEC377"/>
</svg>

<svg width="40" height="40" fill="none" xmlns="http://www.w3.org/2000/svg"><path d="M35.333 27.38v-8.047H20.667v-6.712a5.339 5.339 0 004.666-5.288A5.34 5.34 0 0020 2a5.34 5.34 0 00-5.333 5.333 5.339 5.339 0 004.666 5.288v6.712H4.667v8.046C2.04 27.71 0 29.952 0 32.667A5.34 5.34 0 005.333 38a5.34 5.34 0 005.334-5.333A5.339 5.339 0 006 27.379v-6.712h13.333v6.712a5.339 5.339 0 00-4.666 5.288A5.34 5.34 0 0020 38a5.34 5.34 0 005.333-5.333 5.339 5.339 0 00-4.666-5.288v-6.712H34v6.712a5.339 5.339 0 00-4.667 5.288A5.34 5.34 0 0034.667 38 5.34 5.34 0 0040 32.667a5.339 5.339 0 00-4.667-5.288zM16 7.332c0-2.206 1.794-4 4-4s4 1.794 4 4-1.794 4-4 4-4-1.794-4-4zM9.333 32.667c0 2.206-1.794 4-4 4s-4-1.794-4-4 1.794-4 4-4 4 1.794 4 4zm14.667 0c0 2.206-1.794 4-4 4s-4-1.794-4-4 1.794-4 4-4 4 1.794 4 4zm10.667 4c-2.206 0-4-1.794-4-4s1.794-4 4-4 4 1.794 4 4-1.794 4-4 4z" fill="#DEC377"/></svg>
